Numix-GalliumOS/24/categories/applications-geography.svg

<?xml version="1.0" encoding="UTF-8" standalone="no"?>
<svg
   xmlns:dc="http://purl.org/dc/elements/1.1/"
   xmlns:cc="http://creativecommons.org/ns#"
   xmlns:rdf="http://www.w3.org/1999/02/22-rdf-syntax-ns#"
   xmlns:svg="http://www.w3.org/2000/svg"
   xmlns="http://www.w3.org/2000/svg"
   xmlns:sodipodi="http://sodipodi.sourceforge.net/DTD/sodipodi-0.dtd"
   xmlns:inkscape="http://www.inkscape.org/namespaces/inkscape"
   width="24"
   height="24"
   viewBox="0 0 24 24"
   id="svg2"
   version="1.1"
   inkscape:version="0.91 r"
   sodipodi:docname="applications-geography.svg">
  <metadata
     id="metadata22">
    <rdf:RDF>
      <cc:Work
         rdf:about="">
        <dc:format>image/svg+xml</dc:format>
        <dc:type
           rdf:resource="http://purl.org/dc/dcmitype/StillImage" />
        <dc:title />
      </cc:Work>
    </rdf:RDF>
  </metadata>
  <sodipodi:namedview
     pagecolor="#ffffff"
     bordercolor="#666666"
     borderopacity="1"
     objecttolerance="10"
     gridtolerance="10"
     guidetolerance="10"
     inkscape:pageopacity="0"
     inkscape:pageshadow="2"
     inkscape:window-width="1920"
     inkscape:window-height="1056"
     id="namedview20"
     showgrid="false"
     inkscape:zoom="10.727273"
     inkscape:cx="11"
     inkscape:cy="11"
     inkscape:window-x="0"
     inkscape:window-y="24"
     inkscape:window-maximized="1"
     inkscape:current-layer="svg2" />
  <defs
     id="defs4">
    <clipPath
       id="clip1">
      <path
         d="m 3,3 15.90625,0 0,15.90625 -15.90625,0 z"
         id="path7"
         inkscape:connector-curvature="0" />
    </clipPath>
    <clipPath
       id="clip2">
      <path
         d="m 10.886719,18.570312 c 4.265625,0 7.730469,-3.476562 7.730469,-7.742187 0,-4.238281 -3.464844,-7.71875 -7.730469,-7.71875 -4.238281,0 -7.734375,3.480469 -7.734375,7.71875 0,4.265625 3.496094,7.742187 7.734375,7.742187 z"
         id="path10"
         inkscape:connector-curvature="0" />
    </clipPath>
  </defs>
  <path
     style="fill:#78b2a3"
     d="M 11.996095,3.5 C 9.7432247,3.5 7.6113925,4.3865153 6.0027568,5.9955205 4.3902169,7.6045257 3.5,9.732943 3.5,11.986332 3.5,16.680565 7.3107486,20.5 11.996095,20.5 16.685347,20.5 20.5,16.680565 20.5,11.986332 20.5,7.3077189 16.685347,3.5 11.996095,3.5 Z m 0,0.3514822 c 4.494029,0 8.152503,3.6515048 8.152503,8.1348498 0,4.502871 -3.658474,8.166091 -8.152503,8.166091 -4.4901231,0 -8.1446935,-3.66322 -8.1446935,-8.166091 0,-2.15966 0.8511718,-4.1982545 2.3973352,-5.740869 C 7.7949021,4.7028496 9.8369316,3.8514822 11.996095,3.8514822 Z"
     id="path12"
     inkscape:connector-curvature="0" />
  <g
     style="clip-rule:nonzero"
     id="g14"
     clip-path="url(#clip1)"
     transform="matrix(0.99954062,0,0,0.99977023,1.1182826,1.1177355)">
    <g
       id="g16"
       clip-path="url(#clip2)">
      <path
         style="fill:#78b2a3"
         d="m 8.265625,3.820312 c -0.042969,0 -0.082031,0.015626 -0.125,0.039063 0.097656,-0.03125 0.148437,-0.039063 0.125,-0.039063 m 2.539063,0.496094 0.02344,-0.375 -0.390625,0.027344 0.05078,0.347656 0.316407,0 m -4.425782,6.421875 c -0.078125,-0.07422 -0.027344,-0.398437 -0.027344,-0.398437 0,0 -1.175781,-0.617188 -2.460937,-0.992188 C 3.734375,9.304688 3.8125,8.976562 3.96875,8.851562 L 3.917969,8.507812 C 3.890625,8.332031 4.179688,7.488281 4.46875,7.414062 4.753906,7.339844 4.441406,7.910156 4.441406,7.910156 L 4.152344,8.082031 c 0,0 0.339844,0.398438 0.417968,0.398438 0.082032,0 0.210938,-0.199219 0.210938,-0.199219 L 4.414062,8.035156 4.753906,7.886719 4.777344,7.753906 4.835938,7.738281 5.398438,6.882812 C 5.789062,6.722656 6.265625,6.527344 6.328125,6.496094 6.433594,6.449219 7.164062,6.027344 7.296875,5.929688 7.429688,5.828125 7.714844,5.855469 7.820312,5.855469 7.925781,5.855469 8.082031,5.804688 8.109375,5.53125 8.132812,5.257812 8.238281,5.207031 8.316406,5.285156 8.398438,5.355469 8.238281,5.480469 8.421875,5.53125 8.605469,5.578125 8.761719,5.703125 8.894531,5.578125 8.988281,5.488281 8.859375,5.386719 8.773438,5.308594 l 1.457031,0 0.15625,-0.449219 -0.339844,-0.046875 -1.257813,-0.125 0,-0.148438 L 8.6875,4.554688 C 8.824219,3.808594 9.632812,3.933594 9.023438,3.496094 8.988281,3.472656 8.453125,4.335938 8.320312,4.320312 8.074219,4.289062 7.757812,4.285156 7.691406,4.363281 7.601562,4.472656 7.890625,4 8.140625,3.859375 7.839844,3.949219 7.308594,3.675781 6.34375,4.355469 6.019531,4.585938 5.199219,5.519531 4.863281,5.878906 3.441406,7.558594 3.328125,8.992188 3.328125,9.054688 c 0,0.125 0.300781,0.195312 0.328125,0.34375 0.023438,0.148437 -0.5,0.644531 -0.5,0.890624 0,0.113282 -0.261719,1.351563 0.316406,2.902344 0.507813,1.46875 1.496094,2.765625 1.625,2.847656 L 5.460938,15.84375 c 0,0 -0.601563,-1.0625 -0.625,-1.164062 -0.027344,-0.09766 0.679687,-1.539063 1.019531,-1.488282 0.339843,0.04687 0.261719,0.148438 0.472656,0.02734 0.207031,-0.125 0.339844,-1.144531 0.574219,-1.242188 C 7.140625,11.875 7.398438,11.753906 7.375,11.503906 7.347656,11.257812 6.457031,10.8125 6.378906,10.738281 M 12.0625,3.449219 11.355469,3.199219 11.484375,3.597656 12.0625,3.449219 M 9.417969,4.363281 c 0.078125,0 1.648437,-1.039062 1.492187,-1.066406 -0.15625,-0.023437 -0.183594,0 -0.605468,-0.046875 C 9.886719,3.199219 9.441406,3.84375 9.335938,3.941406 9.234375,4.042969 9.265625,4.363281 9.417969,4.363281 m 7.207031,7.476563 0.203125,-0.261719 -0.203125,-0.07031 -0.148438,0.191407 -0.179687,0.261719 0.152344,0.07031 0.175781,-0.191406 m 0.890625,0.863281 -0.05469,-0.382813 -0.328126,0 -0.02344,0.285157 -0.304687,-0.04687 -0.07422,-0.308594 -0.152344,-0.09766 -0.179687,0.214844 -0.179688,-0.04688 -0.05078,0.164063 0.203125,0.05078 0,1.554688 0.71875,0.171875 c -0.01563,0.02734 -0.02734,0.05078 -0.03125,0.0625 -0.05078,0.167969 0.199218,0.242187 0.378906,0.167969 0.06641,-0.02344 0.480469,-0.183594 0.609375,-0.496094 0.183594,-0.433594 0.300781,-1.0625 0.332031,-1.261719 l -0.07813,-0.175781 -0.507812,0.191406 -0.28125,-0.04687 0.0039,0 M 17.257812,6.34375 C 16.101562,4.585938 13.3125,3.433594 13.3125,3.433594 L 12.597656,3.8125 12.496094,3.644531 l -0.253906,-0.09375 0,0.214844 0.226562,0.191406 -0.152344,0.070313 -0.582031,0.046875 -1.316406,0.71875 0.125,0.574219 -0.152344,0.046874 -0.07422,0.117188 0.429688,0.644531 0.02344,0.21875 -0.351562,0.070313 0,0.429687 -0.203125,0.046875 0.02734,0.335938 -1.726563,1.195312 0.050781,0.667969 C 8.69531,9.308594 9.679686,10.3125 9.679686,10.3125 c 0,0 1.144531,0.04687 1.394531,-0.09766 0.257812,-0.140625 0.07813,0.144531 0.152343,0.214844 0.07813,0.07422 0.105469,0.574218 0.179688,0.625 0.07813,0.04687 0,0.332031 0.101562,0.429687 0.101563,0.09375 0.101563,1.242187 0.101563,1.242187 0,0 0.609375,1.027344 0.609375,1.289063 0,0.261719 -0.02734,0.238281 0.453125,0.214844 0.484375,-0.02344 0.582031,-0.214844 0.6875,-0.285157 0.101563,-0.07031 0.101563,-0.238281 0.199219,-0.382812 0.105468,-0.144531 0.28125,-0.691406 0.507812,-0.882812 0.230469,-0.195313 0.839844,-0.335938 0.886719,-0.671876 0.05078,-0.335937 0.28125,-0.597656 0.28125,-0.597656 l 1.09375,-1.15625 -0.02734,0.15625 -0.02734,0.597656 0.328124,-0.121093 -0.02344,-0.644531 -0.117187,-0.125 0.01562,-0.01953 c 0,0 -0.07812,-0.144531 -0.175781,-0.144531 -0.101562,0 -0.710937,0.144531 -0.8125,0.121094 -0.101562,-0.02734 -0.53125,-1.171875 -0.609375,-1.21875 -0.07813,-0.050781 -0.558594,-0.835938 -0.558594,-0.835938 0,0 1.117188,1.335938 1.292969,1.863281 0.105469,0.304688 0.492188,0.019532 0.804688,-0.300781 L 16.503906,9.785156 16.703125,9.738281 16.679688,9.5 l 0.226562,0 0,0.359375 -0.07422,0.191406 -0.02734,0.308594 0.203124,0.191406 0.101563,-0.167969 0.328125,-0.308593 0.382812,-0.191407 0.09766,0.191407 0.05469,0.261719 -0.101562,0.289062 -0.203125,0.167969 -0.101563,0.429687 0,0.214844 -0.230468,-0.144531 -0.02344,-0.453125 -0.332031,0.02344 -0.148438,0.40625 0.226563,0.335938 0.53125,0.07031 0.433594,-0.40625 0.04687,-0.785156 0.195313,-0.257813 c 0.125,0.324219 0.214844,0.660157 0.214844,0.972657 0,0.34375 0.269531,-0.175781 0.136719,-1.21875 0,-0.00391 -0.210938,-2.488281 -1.359376,-3.636719 z m -5.066406,1.027344 -1.367187,-0.046875 0.582031,-0.476563 0.304688,0 0.480468,0.332032 0,0.191406 m 1.671875,-0.164063 0,0.214844 -0.582031,0 0.05078,0.140625 -0.355469,0.046875 -0.02734,0.121094 -0.25,-0.046875 L 12.24219,7.589844 12.31641,7.46875 12.39454,7.324219 12.648438,7.0625 12.75,7.253906 13.128906,7.230469 13.332031,7.015625 14.121094,7.15625 13.863281,7.207031 m 0.05078,-0.3125 -0.304687,0.046875 -0.05078,-0.214844 0.382812,-0.046874 0.05078,-0.214844 L 14.269531,6.75 13.914062,6.894531 m 1.472657,7.429688 -0.179688,0.144531 0.02344,0.359375 0.230469,0 0,-0.308594 0.203124,-0.265625 0,-0.546875 -0.128906,-0.02734 -0.148437,0.644531 M 13.6875,13.609375 c 0,0 -0.179688,0.04687 0.02344,0.121094 0.203124,0.07031 1.015624,-1.171875 1.015624,-1.171875 l -0.6875,0.429687 -0.351562,0.621094 m -1.382812,4.582031 -0.148438,-0.148437 -0.304688,-0.04687 -0.05078,0.148437 -0.40625,-0.05078 -0.02734,-0.191406 -0.304688,0 -0.328125,0.191406 -0.582031,0 L 10.10157,17.949225 9.167969,17.851562 9.015625,17.996094 8.632812,17.902344 8.582031,17.566406 8.40625,17.539062 8.203125,17.902344 7.519531,17.875 c 0.125,0.05859 1.144531,0.667969 2.710938,0.796875 2.074219,0.167969 3.066406,-0.335937 3.066406,-0.335937 l -0.07813,-0.07422 z"
         id="path18"
         inkscape:connector-curvature="0" />
    </g>
  </g>
</svg>

<svg xmlns="http://www.w3.org/2000/svg" viewBox="0 0 24 24">
 <path d="m 11.996 3.5 c -2.253 0 -4.385 0.887 -5.993 2.496 -1.613 1.609 -2.503 3.737 -2.503 5.991 0 4.694 3.811 8.514 8.496 8.514 4.689 0 8.504 -3.819 8.504 -8.514 0 -4.679 -3.815 -8.486 -8.504 -8.486 m 0 0.351 c 4.494 0 8.153 3.652 8.153 8.135 0 4.503 -3.658 8.166 -8.153 8.166 -4.49 0 -8.145 -3.663 -8.145 -8.166 0 -2.16 0.851 -4.198 2.397 -5.741 c 1.546 -1.543 3.588 -2.394 5.747 -2.394" style="fill:#78b2a3"/>
 <g transform="matrix(0.99954062,0,0,0.99977023,1.1182826,1.1177355)">
  <g>
   <path d="m 8.266 3.82 c -0.043 0 -0.082 0.016 -0.125 0.039 0.098 -0.031 0.148 -0.039 0.125 -0.039 m 2.539 0.496 0.023 -0.375 -0.391 0.027 0.051 0.348 0.316 0 m -4.426 6.422 c -0.078 -0.074 -0.027 -0.398 -0.027 -0.398 0 0 -1.176 -0.617 -2.461 -0.992 c -0.156 -0.043 -0.078 -0.371 0.078 -0.496 l -0.051 -0.344 c -0.027 -0.176 0.262 -1.02 0.551 -1.094 0.285 -0.074 -0.027 0.496 -0.027 0.496 l -0.289 0.172 c 0 0 0.34 0.398 0.418 0.398 0.082 0 0.211 -0.199 0.211 -0.199 l -0.367 -0.246 0.34 -0.148 0.023 -0.133 0.059 -0.016 0.563 -0.855 c 0.391 -0.16 0.867 -0.355 0.93 -0.387 0.105 -0.047 0.836 -0.469 0.969 -0.566 0.133 -0.102 0.418 -0.074 0.523 -0.074 0.105 0 0.262 -0.051 0.289 -0.324 0.023 -0.273 0.129 -0.324 0.207 -0.246 0.082 0.07 -0.078 0.195 0.105 0.246 0.184 0.047 0.34 0.172 0.473 0.047 0.094 -0.09 -0.035 -0.191 -0.121 -0.27 l 1.457 0 0.156 -0.449 -0.34 -0.047 -1.258 -0.125 0 -0.148 l -0.102 0.016 c 0.137 -0.746 0.945 -0.621 0.336 -1.059 -0.035 -0.023 -0.57 0.84 -0.703 0.824 -0.246 -0.031 -0.562 -0.035 -0.629 0.043 -0.09 0.109 0.199 -0.363 0.449 -0.504 -0.301 0.09 -0.832 -0.184 -1.797 0.496 -0.324 0.23 -1.145 1.164 -1.48 1.523 -1.422 1.68 -1.535 3.113 -1.535 3.176 c 0 0.125 0.301 0.195 0.328 0.344 0.023 0.148 -0.5 0.645 -0.5 0.891 0 0.113 -0.262 1.352 0.316 2.902 0.508 1.469 1.496 2.766 1.625 2.848 l 0.363 -0.195 c 0 0 -0.602 -1.063 -0.625 -1.164 -0.027 -0.098 0.68 -1.539 1.02 -1.488 0.34 0.047 0.262 0.148 0.473 0.027 0.207 -0.125 0.34 -1.145 0.574 -1.242 c 0.238 -0.102 0.496 -0.223 0.473 -0.473 -0.027 -0.246 -0.918 -0.691 -0.996 -0.766 m 5.684 -7.289 -0.707 -0.25 0.129 0.398 0.578 -0.148 m -2.645 0.914 c 0.078 0 1.648 -1.039 1.492 -1.066 -0.156 -0.023 -0.184 0 -0.605 -0.047 c -0.418 -0.051 -0.863 0.594 -0.969 0.691 -0.102 0.102 -0.07 0.422 0.082 0.422 m 7.207 7.477 0.203 -0.262 -0.203 -0.07 -0.148 0.191 -0.18 0.262 0.152 0.07 0.176 -0.191 m 0.891 0.863 -0.055 -0.383 -0.328 0 -0.023 0.285 -0.305 -0.047 -0.074 -0.309 -0.152 -0.098 -0.18 0.215 -0.18 -0.047 -0.051 0.164 0.203 0.051 0 1.555 0.719 0.172 c -0.016 0.027 -0.027 0.051 -0.031 0.063 -0.051 0.168 0.199 0.242 0.379 0.168 0.066 -0.023 0.48 -0.184 0.609 -0.496 0.184 -0.434 0.301 -1.063 0.332 -1.262 l -0.078 -0.176 -0.508 0.191 -0.281 -0.047 0.004 0 m -0.258 -6.359 c -1.156 -1.758 -3.945 -2.91 -3.945 -2.91 l -0.715 0.379 -0.102 -0.168 l -0.254 -0.094 0 0.215 0.227 0.191 -0.152 0.07 -0.582 0.047 -1.316 0.719 0.125 0.574 -0.152 0.047 -0.074 0.117 0.43 0.645 0.023 0.219 -0.352 0.07 0 0.43 -0.203 0.047 0.027 0.336 -1.727 1.195 0.051 0.668 c 0.129 0.168 1.113 1.172 1.113 1.172 c 0 0 1.145 0.047 1.395 -0.098 0.258 -0.141 0.078 0.145 0.152 0.215 0.078 0.074 0.105 0.574 0.18 0.625 0.078 0.047 0 0.332 0.102 0.43 0.102 0.094 0.102 1.242 0.102 1.242 0 0 0.609 1.027 0.609 1.289 0 0.262 -0.027 0.238 0.453 0.215 0.484 -0.023 0.582 -0.215 0.688 -0.285 0.102 -0.07 0.102 -0.238 0.199 -0.383 0.105 -0.145 0.281 -0.691 0.508 -0.883 0.23 -0.195 0.84 -0.336 0.887 -0.672 0.051 -0.336 0.281 -0.598 0.281 -0.598 l 1.094 -1.156 -0.027 0.156 -0.027 0.598 0.328 -0.121 -0.023 -0.645 -0.117 -0.125 0.016 -0.02 c 0 0 -0.078 -0.145 -0.176 -0.145 -0.102 0 -0.711 0.145 -0.813 0.121 -0.102 -0.027 -0.531 -1.172 -0.609 -1.219 -0.078 -0.051 -0.559 -0.836 -0.559 -0.836 0 0 1.117 1.336 1.293 1.863 0.105 0.305 0.492 0.02 0.805 -0.301 l 0.086 0.203 0.199 -0.047 -0.023 -0.238 l 0.227 0 0 0.359 -0.074 0.191 -0.027 0.309 0.203 0.191 0.102 -0.168 0.328 -0.309 0.383 -0.191 0.098 0.191 0.055 0.262 -0.102 0.289 -0.203 0.168 -0.102 0.43 0 0.215 -0.23 -0.145 -0.023 -0.453 -0.332 0.023 -0.148 0.406 0.227 0.336 0.531 0.07 0.434 -0.406 0.047 -0.785 0.195 -0.258 c 0.125 0.324 0.215 0.66 0.215 0.973 0 0.344 0.27 -0.176 0.137 -1.219 0 -0.004 -0.211 -2.488 -1.359 -3.637 z m -5.066 1.027 -1.367 -0.047 0.582 -0.477 0.305 0 0.48 0.332 0 0.191 m 1.672 -0.164 0 0.215 -0.582 0 0.051 0.141 -0.355 0.047 -0.027 0.121 -0.25 -0.047 l -0.457 -0.094 0.074 -0.121 0.078 -0.145 0.254 -0.262 0.102 0.191 0.379 -0.023 0.203 -0.215 0.789 0.141 -0.258 0.051 m 0.051 -0.313 -0.305 0.047 -0.051 -0.215 0.383 -0.047 0.051 -0.215 l 0.277 0.285 -0.355 0.145 m 1.473 7.43 -0.18 0.145 0.023 0.359 0.23 0 0 -0.309 0.203 -0.266 0 -0.547 -0.129 -0.027 -0.148 0.645 m -1.699 -0.715 c 0 0 -0.18 0.047 0.023 0.121 0.203 0.07 1.016 -1.172 1.016 -1.172 l -0.688 0.43 -0.352 0.621 m -1.383 4.582 -0.148 -0.148 -0.305 -0.047 -0.051 0.148 -0.406 -0.051 -0.027 -0.191 -0.305 0 -0.328 0.191 -0.582 0 l -0.051 -0.145 -0.934 -0.098 -0.152 0.145 -0.383 -0.094 -0.051 -0.336 -0.176 -0.027 -0.203 0.363 -0.684 -0.027 c 0.125 0.059 1.145 0.668 2.711 0.797 2.074 0.168 3.066 -0.336 3.066 -0.336 l -0.078 -0.074 z" style="fill:#78b2a3"/>
  </g>
 </g>
</svg>
